!!!OTL: 744. Ergebung.
!!!ARE: Europa, Mitteleuropa, Deutschland, Oberlausitz
!!!SCT: B0744
!!!TXL: @@DE
!!!YEM: Copyright 1995, estate of Helmut Schaffrath.
**kern	**text
*ICvox	*
*Ivox	*
*clefG2	*
*M4/4	*
*met(c)	*
*k[b-]	*
*F:	*
=1	=1
!LO:TX:a:t=Ruhig.	!
{4f	Auf
4f	den
(8fL	Schnee,
8gJ	.
4a)	.
=2	=2
4g	auf
4g	den
(<8gL	Schnee
8aJ	.
4b-/)}	.
=3	=3
{4.a	folgt
8b-	der
4cc	grü-
4b-	-ne
=4	=4
4a	Hoff-
4g	-nungs-
4f	-klee.
4r}	.
=5	=5
{4.a	Wenn
8b-	der
4cc	Win-
4cc	-ter
=6	=6
8ccL	iſt
8b-J	.
8aL	ver-
8b-J	.
4b-/	-gan-
4a}	-gen,
=7	=7
{4.a	ſol-
8b-	-len
4cc	neu
4cc	die
=8	=8
8ccL	Blüm-
8b-J	.
8aL	-lein
8b-J	.
4b-/	pran-
4a}	-gen,
=9	=9
{4a	ſchwingt
4a	die
4g	Ler-
4a	-che
=10	=10
4b-	ſich
4a	ʒur
2g}	Höh'
=11	=11
{4f	Auf
4f	den
(8fL	Schnee,
8gJ	.
4a)	.
=12	=12
4g	auf
4g	den
(8gL	Schnee
8aJ	.
4b-/)}	.
=13	=13
{4.a	folgt
8b-	der
4cc	grü-
4b-	-ne
=14	=14
4a	Hoff-
4g	-nungs-
2f}	-klee.
==	==
!!!AGN: Moral - Lied, Trost, religioes
!!!GTL: Religioese Lieder
!!!ONB: ESAC (Essen Associative Code) Database: BOEHME
!!!AMT: simple quadruple
!!!AIN: vox
!!!EED: Helmut Schaffrath
!!!EEV: 1.0
!!!RDF**kern: < = below
!!Oberlauſitʒer Volksweiſe 1740.
!!@@COMMENT:"Nach einem alten oberlauſitʒer Volksliede gedichtet von Karl Ludwig Francke 1844. Der alte
!!Volkstext aus Görlitʒ. 1841 bei Erk, Volksl. II. 3, Nr. 1."
!!@@END:
!!!Text: K. L. Francke
!!!URL-scan: https://archive.org/details/BoehmeVtLieder1895/page/n597/mode/2up
!!!ENC: Anna Maria Matuszewska
!!!EEV: 2024/18/07
*-	*-
